remix/Design/shape-2-line.svg

<svg viewBox="0 0 24 24" xmlns="http://www.w3.org/2000/svg"><path fill="none" d="M0 0h24v24H0Z"/><path d="M20 16h2v6h-6v-2H8v2H2v-6h2V8H2V2h6v2h8V2h6v6h-2v8Zm-2 0V8h-2V6H8v2H6v8h2v2h8v-2h2ZM4 4v2h2V4H4Zm0 14v2h2v-2H4ZM18 4v2h2V4h-2Zm0 14v2h2v-2h-2Z"/></svg>

<svg viewBox="0 0 24 24" fill="currentColor" xmlns="http://www.w3.org/2000/svg"><path d="M20 16H22V22H16V20H8V22H2V16H4V8H2V2H8V4H16V2H22V8H20V16ZM18 16V8H16V6H8V8H6V16H8V18H16V16H18ZM4 4V6H6V4H4ZM4 18V20H6V18H4ZM18 4V6H20V4H18ZM18 18V20H20V18H18Z"/></svg>
